public/avatar/body/90.svg

<svg xmlns:xlink="http://www.w3.org/1999/xlink" height="82" width="84.85" xmlns="http://www.w3.org/2000/svg"><use height="44.1" transform="translate(20.5 23.9)" width="41.8" xlink:href="#a"/><defs><g id="a"><path d="M9.2 19.55q0 2.35-1.35 4.05-1.3 1.65-3.15 1.65-1.85 0-3.2-1.65Q.2 21.9.2 19.55q0-2.35 1.3-4 1.35-1.65 3.2-1.65t3.15 1.65q1.35 1.7 1.35 4" fill="#445a6e" fill-rule="evenodd" transform="translate(16.9 18.35)"/><path d="M9.2 19.55q0 2.35-1.35 4.05-1.3 1.65-3.15 1.65-1.85 0-3.2-1.65Q.2 21.9.2 19.55q0-2.35 1.3-4 1.35-1.65 3.2-1.65t3.15 1.65q1.35 1.7 1.35 4Z" fill="none" stroke="#000" stroke-linecap="round" stroke-linejoin="round" transform="translate(16.9 18.35)"/><path d="M4.25-17.85q5.35.2 7.45 2.3Q15.05-12.2 17-6.5l2.55 9.4Q20.8 8 21.4 8.85l1.8 1.7q1.2 1.15 1.2 2.8 0 8.1-20.4 8.2-20.35-.1-20.35-8.2 0-1.65 1.2-2.8 1.4-1.05 1.8-1.7.55-.85 1.8-5.95L-9-6.5q1.9-5.6 5.3-9.05 2.1-2.1 7.95-2.3" fill="#a6c9e0" fill-rule="evenodd" transform="translate(16.9 18.35)"/><path d="M-16.75 12.5q1.65-2.3 2.65-2.15 2 2.5 4.6 3 2.65.5 6.25 1.5l-.8 1.25q-.75 1.45-.7 2.4l.4 3q-6.4-.5-8.5-2.4-1.8-1.55-3.05-3.5-1.4-2.2-.85-3.1" fill="#87b3d9" fill-rule="evenodd" transform="translate(16.9 18.35)"/><path d="M-15.5 11.1q-2.1 4.1 2.5 6.95Q-8.3 21 4.75 21q12.35 0 16.85-3.2 4.3-3.05 1.9-7.3" fill="none" stroke="#6797b5" stroke-linecap="round" stroke-linejoin="round" transform="translate(16.9 18.35)"/><path d="M4.15-17.7q4 0 6.1 1.2 1.35.75-.25 1.75-1.8 1.1-6.25 1.1-4.6 0-6.45-.9-1.75-.85 0-1.7Q.35-17.7 4.15-17.7" fill="#d8e6f0" fill-rule="evenodd" transform="translate(16.9 18.35)"/><path d="m-14.3 10.05-.85 1.4q-.7 1.7.1 3.1 2.6 4.5 19.25 4.5t19.3-4.8q1.35-2.45-.65-4.85" fill="none" stroke="#f2faff" stroke-linecap="round" stroke-linejoin="round" transform="translate(16.9 18.35)"/><path d="m-13.85 10-.65 1.3q-.45 1.55.45 2.85 2.95 4.1 18.55 4.1 15.65 0 18.15-4.25 1.25-2.1-.65-4.25" fill="none" stroke="#5e8ab5" stroke-linecap="round" stroke-linejoin="round" transform="translate(16.9 18.35)"/><path d="m-13 8.9-.25 1.1q-.05 1.3 1.05 2.4 3.5 3.5 17.05 3.5t16.2-4.4Q22.4 9.25 21 7.05" fill="none" stroke="#f2faff" stroke-linecap="round" stroke-linejoin="round" transform="translate(16.9 18.35)"/><path d="m-9.3 3.5 1.35-3.75-.3 3.2q-.25 3.5.05 4.8.5 2.15 3.65 4.15-5.25-1.15-6.9-2.5-1.6-1.4-1.5-2.15Q-9.8 5.65-9.3 3.5" fill="#d8e6f0" fill-rule="evenodd" transform="translate(16.9 18.35)"/><path d="m-13.1 7.6-.1 1.15q.15 1.35 1.35 2.5 3.75 3.6 16.5 3.6 12.7 0 15.65-4.3 1.45-2.15.35-4.3" fill="none" stroke="#5e8ab5" stroke-linecap="round" stroke-linejoin="round" transform="translate(16.9 18.35)"/><path d="m1.35-13.7-2.75-1-.2-.15-2.75 2.75q-2.05 2.75-2.5 6.35 1.7-4.45 4.2-6.45Q-1.1-13.45.3-13.7h1.05" fill="#d8e6f0" fill-rule="evenodd" transform="translate(16.9 18.35)"/><path d="M-2.75-16.25q-.35.7.3 1.35 1.25 1.35 6.15 1.35" fill="none" stroke="#f2faff" stroke-linecap="round" stroke-linejoin="round" transform="translate(16.9 18.35)"/><path d="M4.25-17.85q-5.85.2-7.95 2.3Q-7.1-12.1-9-6.5l-2.55 9.4q-1.25 5.1-1.8 5.95-.4.65-1.8 1.7-1.2 1.15-1.2 2.8 0 8.1 20.35 8.2 20.4-.1 20.4-8.2 0-1.65-1.2-2.8l-1.8-1.7Q20.8 8 19.55 2.9L17-6.5q-1.95-5.7-5.3-9.05-2.1-2.1-7.45-2.3Z" fill="none" stroke="#203440" stroke-linecap="round" stroke-linejoin="round" transform="translate(16.9 18.35)"/><path d="M12 9.1q0 2.4-7.25 2.4T-2.5 9.1q0-2.35 7.25-2.35T12 9.1" fill="#87b3d9" fill-rule="evenodd" transform="translate(16.9 18.35)"/><path d="m10.65-14.75-1.65.6q3.65 3.9 5.25 12.25 1.9 9.75.15 11.5l-3.5 2.75 6-1.1 2.35-1L17-1.5q-1.25-5.4-6.35-13.25" fill="#87b3d9" fill-rule="evenodd" transform="translate(16.9 18.35)"/></g></defs></svg>

<?xml version="1.0" encoding="UTF-8" standalone="no"?>
<svg xmlns:xlink="http://www.w3.org/1999/xlink" height="82.0px" width="84.85px" xmlns="http://www.w3.org/2000/svg">
  <g transform="matrix(1.0, 0.0, 0.0, 1.0, 37.4, 42.25)">
    <use height="44.1" transform="matrix(1.0, 0.0, 0.0, 1.0, -16.9, -18.35)" width="41.8" xlink:href="#shape0"/>
  </g>
  <defs>
    <g id="shape0" transform="matrix(1.0, 0.0, 0.0, 1.0, 16.9, 18.35)">
      <path d="M9.2 19.55 Q9.2 21.9 7.85 23.6 6.55 25.25 4.7 25.25 2.85 25.25 1.5 23.6 0.2 21.9 0.2 19.55 0.2 17.2 1.5 15.55 2.85 13.9 4.7 13.9 6.55 13.9 7.85 15.55 9.2 17.25 9.2 19.55" fill="#445a6e" fill-rule="evenodd" stroke="none"/>
      <path d="M9.2 19.55 Q9.2 21.9 7.85 23.6 6.55 25.25 4.7 25.25 2.85 25.25 1.5 23.6 0.2 21.9 0.2 19.55 0.2 17.2 1.5 15.55 2.85 13.9 4.7 13.9 6.55 13.9 7.85 15.55 9.2 17.25 9.2 19.55 Z" fill="none" stroke="#000000" stroke-linecap="round" stroke-linejoin="round" stroke-width="1.0"/>
      <path d="M4.25 -17.85 Q9.6 -17.65 11.7 -15.55 15.05 -12.2 17.0 -6.5 L19.55 2.9 Q20.8 8.0 21.4 8.85 L23.2 10.55 Q24.4 11.7 24.4 13.35 24.4 21.45 4.0 21.55 -16.35 21.45 -16.35 13.35 -16.35 11.7 -15.15 10.55 -13.75 9.5 -13.35 8.85 -12.8 8.0 -11.55 2.9 L-9.0 -6.5 Q-7.1 -12.1 -3.7 -15.55 -1.6 -17.65 4.25 -17.85" fill="#a6c9e0" fill-rule="evenodd" stroke="none"/>
      <path d="M-16.75 12.5 Q-15.1 10.2 -14.1 10.35 -12.1 12.85 -9.5 13.35 -6.85 13.85 -3.25 14.85 L-4.05 16.1 Q-4.8 17.55 -4.75 18.5 L-4.35 21.5 Q-10.75 21.0 -12.85 19.1 -14.65 17.55 -15.9 15.6 -17.3 13.4 -16.75 12.5" fill="#87b3d9" fill-rule="evenodd" stroke="none"/>
      <path d="M-15.5 11.1 Q-17.6 15.2 -13.0 18.05 -8.3 21.0 4.75 21.0 17.1 21.0 21.6 17.8 25.9 14.75 23.5 10.5" fill="none" stroke="#6797b5" stroke-linecap="round" stroke-linejoin="round" stroke-width="1.0"/>
      <path d="M4.15 -17.7 Q8.15 -17.7 10.25 -16.5 11.6 -15.75 10.0 -14.75 8.2 -13.65 3.75 -13.65 -0.85 -13.65 -2.7 -14.55 -4.45 -15.4 -2.7 -16.25 0.35 -17.7 4.15 -17.7" fill="#d8e6f0" fill-rule="evenodd" stroke="none"/>
      <path d="M-14.3 10.05 L-15.15 11.45 Q-15.85 13.15 -15.05 14.55 -12.45 19.05 4.2 19.05 20.85 19.05 23.5 14.25 24.85 11.8 22.85 9.4" fill="none" stroke="#f2faff" stroke-linecap="round" stroke-linejoin="round" stroke-width="1.0"/>
      <path d="M-13.85 10.0 L-14.5 11.3 Q-14.95 12.85 -14.05 14.15 -11.1 18.25 4.5 18.25 20.15 18.25 22.65 14.0 23.9 11.9 22.0 9.75" fill="none" stroke="#5e8ab5" stroke-linecap="round" stroke-linejoin="round" stroke-width="1.0"/>
      <path d="M-13.0 8.9 L-13.25 10.0 Q-13.3 11.3 -12.2 12.4 -8.7 15.9 4.85 15.9 18.4 15.9 21.05 11.5 22.4 9.25 21.0 7.05" fill="none" stroke="#f2faff" stroke-linecap="round" stroke-linejoin="round" stroke-width="1.0"/>
      <path d="M-9.3 3.5 L-7.95 -0.25 -8.25 2.95 Q-8.5 6.45 -8.2 7.75 -7.7 9.9 -4.55 11.9 -9.8 10.75 -11.45 9.4 -13.05 8.0 -12.95 7.25 -9.8 5.65 -9.3 3.5" fill="#d8e6f0" fill-rule="evenodd" stroke="none"/>
      <path d="M-13.1 7.6 L-13.2 8.75 Q-13.05 10.1 -11.85 11.25 -8.1 14.85 4.65 14.85 17.35 14.85 20.3 10.55 21.75 8.4 20.65 6.25" fill="none" stroke="#5e8ab5" stroke-linecap="round" stroke-linejoin="round" stroke-width="1.0"/>
      <path d="M1.35 -13.7 L-1.4 -14.7 -1.6 -14.85 -4.35 -12.1 Q-6.4 -9.35 -6.85 -5.75 -5.15 -10.2 -2.65 -12.2 -1.1 -13.45 0.3 -13.7 L1.35 -13.7" fill="#d8e6f0" fill-rule="evenodd" stroke="none"/>
      <path d="M-2.75 -16.25 Q-3.1 -15.55 -2.45 -14.9 -1.2 -13.55 3.7 -13.55" fill="none" stroke="#f2faff" stroke-linecap="round" stroke-linejoin="round" stroke-width="1.0"/>
      <path d="M4.25 -17.85 Q-1.6 -17.65 -3.7 -15.55 -7.1 -12.1 -9.0 -6.5 L-11.55 2.9 Q-12.8 8.0 -13.35 8.85 -13.75 9.5 -15.15 10.55 -16.35 11.7 -16.35 13.35 -16.35 21.45 4.0 21.55 24.4 21.45 24.4 13.35 24.4 11.7 23.2 10.55 L21.4 8.85 Q20.8 8.0 19.55 2.9 L17.0 -6.5 Q15.05 -12.2 11.7 -15.55 9.6 -17.65 4.25 -17.85 Z" fill="none" stroke="#203440" stroke-linecap="round" stroke-linejoin="round" stroke-width="1.0"/>
      <path d="M12.0 9.1 Q12.0 11.5 4.75 11.5 -2.5 11.5 -2.5 9.1 -2.5 6.75 4.75 6.75 12.0 6.75 12.0 9.1" fill="#87b3d9" fill-rule="evenodd" stroke="none"/>
      <path d="M10.65 -14.75 L9.0 -14.15 Q12.65 -10.25 14.25 -1.9 16.15 7.85 14.4 9.6 L10.9 12.35 16.9 11.25 19.25 10.25 17.0 -1.5 Q15.75 -6.9 10.65 -14.75" fill="#87b3d9" fill-rule="evenodd" stroke="none"/>
    </g>
  </defs>
</svg>
